X: 26641
T: MicMac Square Dance Tune
R: polka
M: 2/4
K: Edorian
|:GE GA|BA Bc|dA FA|dc BA|
GE GA|BA Bc|dA FD|E2 E2:|
|:ee B/c/d|ed B>c|dA FA|dc BA|
ee B/c/d|ed B>c|dA FD|E2 E2:|

